icons/file-damage-line.svg

<svg xmlns="http://www.w3.org/2000/svg" width="24" height="24" fill="none"><g clip-path="url(#a)"><g><path fill="#121212" d="M19 9H14V4H5V11.857L6.5 13.25L10 9.5L13 14.5L15 12L18 15L15 14.5L13 17L10 13L7 16.5L5 15.25V20H19V9ZM21 8V20.993C21.0009 21.1243 20.976 21.2545 20.9266 21.3762C20.8772 21.4979 20.8043 21.6087 20.7121 21.7022C20.6199 21.7957 20.5101 21.8701 20.3892 21.9212C20.2682 21.9723 20.1383 21.9991 20.007 22H3.993C3.72981 22 3.47739 21.8955 3.2912 21.7095C3.105 21.5235 3.00027 21.2712 3 21.008V2.992C3 2.455 3.449 2 4.002 2H14.997L21 8Z"/></g></g><defs><clipPath id="a"><rect width="24" height="24" fill="white"/></clipPath></defs></svg>

<svg width="24" height="24" fill="none" xmlns="http://www.w3.org/2000/svg"><g clip-path="url(#a)"><path d="M19 9h-5V4H5v7.857l1.5 1.393L10 9.5l3 5 2-2.5 3 3-3-.5-2 2.5-3-4-3 3.5-2-1.25V20h14V9Zm2-1v12.993A1 1 0 0 1 20.007 22H3.993A.993.993 0 0 1 3 21.008V2.992C3 2.455 3.449 2 4.002 2h10.995L21 8Z" /></g><defs><clipPath id="a"><path fill="#fff" d="M0 0h24v24H0z"/></clipPath></defs></svg>
